X:1
T:Title
%%score { 1 | 2 }
L:1/8
M:3/4
K:D
V:1 treble nm="Grand Piano"
V:2 bass 
V:1
 z2 z2[Q:1/4=100] D>F | [FA]3 [GB] [FA][DF] | [CE] D3 F>[FA] | [Fd]4 [A,DF]2 | %4
[M:2/4][K:bass] [A,CE]4 |[M:1/4] [F,D]>[K:treble][A,DF] |[M:3/4] [DFA]3 [DGB] [DFA][A,DF] | %7
 [G,CE] [F,D]3[K:treble] [^G,D]>[G,DE] | [A,DF]4[K:bass] [G,CE]2 |[M:2/4] [F,D]4 | %10
[M:1/4][K:treble] [FA]>[FA] |[M:3/4] [Fd]3 [Fe] [Gd]>[GB] | [FA] [DF]3 [FA]>[FA] | [Fd]4 [DF]2 | %14
[M:2/4] [CE]4 |[M:1/4] D>E |[M:3/4] F3 [FA] Bd | A F3 D>[^G,DE] | [A,DF]4[K:bass] [G,CE]2 | %19
[M:2/4] [F,D]4 |] %20
V:2
 z2 z2 [D,F,]>[D,A,D] | [D,D]3 [D,D] [D,D][D,A,] | [A,,G,] [D,F,]3 [D,A,D]>[D,D] | [D,A,]4 D,2 | %4
[M:2/4] A,,4 |[M:1/4] D,>D, |[M:3/4] D,3 D, D,D, | A,, D,3 B,,>B,, | A,,4 A,,2 |[M:2/4] D,4 | %10
[M:1/4] [D,D]>[D,D] |[M:3/4] [D,A,]3 [D,A,] [D,B,]>[D,D] | [D,D] [D,A,]3 [D,D]>[D,D] | %13
 [D,A,]4 [D,A,]2 |[M:2/4] [A,,A,]4 |[M:1/4] [D,F,]>[D,G,D] | %16
[M:3/4] [D,A,D]3 [D,D][K:treble] [G,DG][G,B,D] | [F,D] [D,A,D]3 [B,,^G,]>B,, | A,,4 A,,2 | %19
[M:2/4] D,4 |] %20

